SVG_Azure_All/Virtual Machine Updates.svg

<?xml version="1.0" encoding="UTF-8" standalone="no"?>
<!-- Generated by Microsoft Visio, SVG Export Virtual Machine Updates.svg Page-1 -->

<svg
   xmlns:dc="http://purl.org/dc/elements/1.1/"
   xmlns:cc="http://creativecommons.org/ns#"
   xmlns:rdf="http://www.w3.org/1999/02/22-rdf-syntax-ns#"
   xmlns:svg="http://www.w3.org/2000/svg"
   xmlns="http://www.w3.org/2000/svg"
   xmlns:sodipodi="http://sodipodi.sourceforge.net/DTD/sodipodi-0.dtd"
   xmlns:inkscape="http://www.inkscape.org/namespaces/inkscape"
   width="0.78736138in"
   height="0.70868915in"
   viewBox="0 0 56.689928 51.025603"
   xml:space="preserve"
   class="st5"
   version="1.1"
   id="svg45"
   sodipodi:docname="Virtual Machine Updates.svg"
   style="font-size:12px;overflow:visible;color-interpolation-filters:sRGB;fill:none;fill-rule:evenodd;stroke-linecap:square;stroke-miterlimit:3"
   inkscape:version="0.92.5 (2060ec1f9f, 2020-04-08)"><metadata
   id="metadata49"><rdf:RDF><cc:Work
       rdf:about=""><dc:format>image/svg+xml</dc:format><dc:type
         rdf:resource="http://purl.org/dc/dcmitype/StillImage" /></cc:Work></rdf:RDF></metadata><sodipodi:namedview
   pagecolor="#ffffff"
   bordercolor="#666666"
   borderopacity="1"
   objecttolerance="10"
   gridtolerance="10"
   guidetolerance="10"
   inkscape:pageopacity="0"
   inkscape:pageshadow="2"
   inkscape:window-width="640"
   inkscape:window-height="480"
   id="namedview47"
   showgrid="false"
   inkscape:zoom="1.4869072"
   inkscape:cx="37.795348"
   inkscape:cy="34.006413"
   inkscape:window-x="0"
   inkscape:window-y="0"
   inkscape:window-maximized="0"
   inkscape:current-layer="svg45" />
	<style
   type="text/css"
   id="style2">
	<![CDATA[
		.st1 {fill:url(#grad0-6);stroke:none;stroke-linecap:butt;stroke-width:34}
		.st2 {fill:url(#grad0-10);stroke:none;stroke-linecap:butt;stroke-width:34}
		.st3 {fill:#ffffff;fill-opacity:0.8;stroke:none;stroke-linecap:butt;stroke-width:34}
		.st4 {fill:#ffffff;stroke:none;stroke-linecap:butt;stroke-width:34}
		.st5 {fill:none;fill-rule:evenodd;font-size:12px;overflow:visible;stroke-linecap:square;stroke-miterlimit:3}
	]]>
	</style>

	<defs
   id="Patterns_And_Gradients">
		<linearGradient
   id="grad0-6"
   x1="0"
   y1="102.02082"
   x2="45.687261"
   y2="102.02082"
   gradientTransform="scale(1.2408273,0.80591393)"
   gradientUnits="userSpaceOnUse">
			<stop
   offset="0"
   stop-color="#0078d4"
   stop-opacity="1"
   id="stop4" />
			<stop
   offset="0.82"
   stop-color="#5ea0ef"
   stop-opacity="1"
   id="stop6" />
		</linearGradient>
		<linearGradient
   id="grad0-10"
   x1="-5.1155188e-05"
   y1="148.06968"
   x2="20.071208"
   y2="148.06968"
   gradientTransform="scale(1.4124743,0.7079775)"
   gradientUnits="userSpaceOnUse">
			<stop
   offset="0"
   stop-color="#cccccc"
   stop-opacity="1"
   id="stop9" />
			<stop
   offset="1"
   stop-color="#707070"
   stop-opacity="1"
   id="stop11" />
		</linearGradient>
	</defs>
	<g
   id="g43"
   transform="translate(-34.000079,-33.9987)">
		<title
   id="title15">Page-1</title>
		<g
   id="group297-1"
   transform="translate(34,-34.0157)">
			<title
   id="title17">Virtual Machine Updates</title>
			<g
   id="group298-2">
				<title
   id="title19">Sheet.298</title>
				<g
   id="shape299-3"
   transform="translate(0,-14.2056)">
					<title
   id="title21">Sheet.299</title>
					<path
   d="m 0,117.2 a 1.88981,1.84094 -180 0 0 1.89,1.84 H 54.8 a 1.88981,1.84094 -180 0 0 1.89,-1.84 V 84.06 A 1.88981,1.84094 -180 0 0 54.8,82.22 H 1.89 A 1.88981,1.84094 -180 0 0 0,84.06 Z"
   class="st1"
   id="path23"
   inkscape:connector-curvature="0"
   style="fill:url(#grad0-6);stroke:none;stroke-width:34;stroke-linecap:butt" />
				</g>
				<g
   id="shape300-7"
   transform="translate(14.1732)">
					<title
   id="title26">Sheet.300</title>
					<path
   d="m 25.54,115.97 c -5.6,-0.86 -5.82,-4.79 -5.82,-11.14 H 8.6 c 0,6.35 -0.19,10.28 -5.8,11.14 A 3.14961,3.06817 -180 0 0 0,119.04 h 28.35 a 3.14961,3.06817 -180 0 0 -2.81,-3.07 z"
   class="st2"
   id="path28"
   inkscape:connector-curvature="0"
   style="fill:url(#grad0-10);stroke:none;stroke-width:34;stroke-linecap:butt" />
				</g>
				<g
   id="shape301-11"
   transform="translate(15.5559,-20.4156)">
					<title
   id="title31">Sheet.301</title>
					<path
   d="m 0,107.14 v 7.94 a 0.462992,0.451021 -180 0 0 0.462992,0.45102 0.469291,0.457157 -180 0 0 0.270866,-0.0859 L 2.98,113.87 a 13.1465,12.8065 -180 0 0 5.11,4.06 12.863,12.5304 -180 0 0 5.27,1.11 12.3118,11.9935 -180 0 0 2.15,-0.18 12.5764,12.2512 -180 0 0 3.54,-1.14 12.1197,11.8063 -180 0 0 3,-2.07 12.337,12.018 -180 0 0 3.49,-6.09 0.705512,0.687269 -180 0 0 -0.48189,-0.80079 0.680315,0.662724 -180 0 0 -0.207874,-0.0307 0.702362,0.684201 -180 0 0 -0.674016,0.48477 10.6205,10.3459 0 0 1 -3.44622,4.9767 10.0346,9.77518 0 0 1 -5.55,2.18 9.09606,8.86087 0 0 1 -0.88,0.04 9.95591,9.69848 0 0 1 -4.82,-1.23 9.78268,9.52973 0 0 1 -3.57,-3.37 l 3.11,-2.19 A 0.462992,0.451021 -180 0 0 8.868819,108.81921 L 0.58,106.71 a 0.40315,0.392725 -180 0 0 -0.119685,0 0.459843,0.447952 -180 0 0 -0.459843,0.43261 z"
   class="st3"
   id="path33"
   inkscape:connector-curvature="0"
   style="fill:#ffffff;fill-opacity:0.8;stroke:none;stroke-width:34;stroke-linecap:butt" />
				</g>
				<g
   id="shape302-13"
   transform="translate(15.6283,-32.3262)">
					<title
   id="title36">Sheet.302</title>
					<path
   d="m 25.52,118.58 v -7.94 a 0.466142,0.454089 -180 0 0 -0.466142,-0.45102 0.459843,0.447952 -180 0 0 -0.267717,0.0859 L 22.68,111.76 a 13.2063,12.8648 -180 0 0 -5.36,-4.16 12.9575,12.6224 -180 0 0 -5.09,-1.03 12.3748,12.0548 -180 0 0 -12.23,9.64 0.629921,0.613633 -180 0 0 0.428346,0.69647 0.708661,0.690338 -180 0 0 0.182677,0.0246 0.629921,0.613633 -180 0 0 0.592126,-0.42648 A 10.7087,10.4318 0 0 1 4.67,111.5 10.1197,9.85802 0 0 1 10.2,109.31 c 0.29,-0.03 0.59,-0.05 0.88,-0.05 a 9.85827,9.60336 0 0 1 4.78,1.23 9.6126,9.36405 0 0 1 3.64,3.51 l -3.02,2.12 a 0.462992,0.451021 -180 0 0 0.154331,0.80079 L 24.93,119.02 a 0.384252,0.374316 -180 0 0 0.116535,0.0153 0.462992,0.451021 -180 0 0 0.472441,-0.46329 z"
   class="st4"
   id="path38"
   inkscape:connector-curvature="0"
   style="fill:#ffffff;stroke:none;stroke-width:34;stroke-linecap:butt" />
				</g>
			</g>
		</g>
	</g>
</svg>

<?xml version="1.0" encoding="UTF-8" standalone="no"?>
<!DOCTYPE svg PUBLIC "-//W3C//DTD SVG 1.1//EN" "http://www.w3.org/Graphics/SVG/1.1/DTD/svg11.dtd">
<!-- Generated by Microsoft Visio, SVG Export Virtual Machine Updates.svg Page-1 -->
<svg xmlns="http://www.w3.org/2000/svg" xmlns:xlink="http://www.w3.org/1999/xlink" xmlns:ev="http://www.w3.org/2001/xml-events"
		width="1.73185in" height="1.65332in" viewBox="0 0 124.693 119.039" xml:space="preserve" color-interpolation-filters="sRGB"
		class="st5">
	<style type="text/css">
	<![CDATA[
		.st1 {fill:url(#grad0-6);stroke:none;stroke-linecap:butt;stroke-width:34}
		.st2 {fill:url(#grad0-10);stroke:none;stroke-linecap:butt;stroke-width:34}
		.st3 {fill:#ffffff;fill-opacity:0.8;stroke:none;stroke-linecap:butt;stroke-width:34}
		.st4 {fill:#ffffff;stroke:none;stroke-linecap:butt;stroke-width:34}
		.st5 {fill:none;fill-rule:evenodd;font-size:12px;overflow:visible;stroke-linecap:square;stroke-miterlimit:3}
	]]>
	</style>

	<defs id="Patterns_And_Gradients">
		<linearGradient id="grad0-6" x1="0" y1="0" x2="1" y2="0" gradientTransform="rotate(-90 0.5 0.5)">
			<stop offset="0" stop-color="#0078d4" stop-opacity="1"/>
			<stop offset="0.82" stop-color="#5ea0ef" stop-opacity="1"/>
		</linearGradient>
		<linearGradient id="grad0-10" x1="0" y1="0" x2="1" y2="0" gradientTransform="rotate(-90 0.5 0.5)">
			<stop offset="0" stop-color="#cccccc" stop-opacity="1"/>
			<stop offset="1" stop-color="#707070" stop-opacity="1"/>
		</linearGradient>
	</defs>
	<g>
		<title>Page-1</title>
		<g id="group297-1" transform="translate(34,-34.0157)">
			<title>Virtual Machine Updates</title>
			<g id="group298-2">
				<title>Sheet.298</title>
				<g id="shape299-3" transform="translate(0,-14.2056)">
					<title>Sheet.299</title>
					<path d="M0 117.2 A1.88981 1.84094 -180 0 0 1.89 119.04 L54.8 119.04 A1.88981 1.84094 -180 0 0 56.69 117.2 L56.69
								 84.06 A1.88981 1.84094 -180 0 0 54.8 82.22 L1.89 82.22 A1.88981 1.84094 -180 0 0 0 84.06 L0 117.2
								 Z" class="st1"/>
				</g>
				<g id="shape300-7" transform="translate(14.1732,1.42109E-14)">
					<title>Sheet.300</title>
					<path d="M25.54 115.97 C19.94 115.11 19.72 111.18 19.72 104.83 L8.6 104.83 C8.6 111.18 8.41 115.11 2.8 115.97
								 A3.14961 3.06817 -180 0 0 -0 119.04 L28.35 119.04 A3.14961 3.06817 -180 0 0 25.54 115.97 Z"
							class="st2"/>
				</g>
				<g id="shape301-11" transform="translate(15.5559,-20.4156)">
					<title>Sheet.301</title>
					<path d="M0 107.14 L0 115.08 a0.462992 0.451021 -180 0 0 0.462992 0.451021 a0.469291 0.457157 -180 0 0 0.270866
								 -0.0859087 L2.98 113.87 A13.1465 12.8065 -180 0 0 8.09 117.93 A12.863 12.5304 -180 0 0 13.36 119.04
								 A12.3118 11.9935 -180 0 0 15.51 118.86 A12.5764 12.2512 -180 0 0 19.05 117.72 A12.1197 11.8063 -180
								 0 0 22.05 115.65 A12.337 12.018 -180 0 0 25.54 109.56 a0.705512 0.687269 -180 0 0 -0.48189 -0.800792
								 a0.680315 0.662724 -180 0 0 -0.207874 -0.0306817 a0.702362 0.684201 -180 0 0 -0.674016 0.48477 A10.6205
								 10.3459 0 0 1 20.73 114.19 A10.0346 9.77518 0 0 1 15.18 116.37 A9.09606 8.86087 0 0 1 14.3 116.41
								 A9.95591 9.69848 0 0 1 9.48 115.18 A9.78268 9.52973 0 0 1 5.91 111.81 L9.02 109.62 a0.462992 0.451021
								 -180 0 0 -0.151181 -0.800792 L0.58 106.71 a0.40315 0.392725 -180 0 0 -0.119685 1.42109E-14 a0.459843
								 0.447952 -180 0 0 -0.459843 0.432612 Z" class="st3"/>
				</g>
				<g id="shape302-13" transform="translate(15.6283,-32.3262)">
					<title>Sheet.302</title>
					<path d="M25.52 118.58 L25.52 110.64 a0.466142 0.454089 -180 0 0 -0.466142 -0.451021 a0.459843 0.447952 -180
								 0 0 -0.267717 0.0859087 L22.68 111.76 A13.2063 12.8648 -180 0 0 17.32 107.6 A12.9575 12.6224 -180
								 0 0 12.23 106.57 A12.3748 12.0548 -180 0 0 -0 116.21 a0.629921 0.613633 -180 0 0 0.428346 0.696474
								 a0.708661 0.690338 -180 0 0 0.182677 0.0245453 a0.629921 0.613633 -180 0 0 0.592126 -0.426475 A10.7087
								 10.4318 0 0 1 4.67 111.5 A10.1197 9.85802 0 0 1 10.2 109.31 C10.49 109.28 10.79 109.26 11.08 109.26
								 A9.85827 9.60336 0 0 1 15.86 110.49 A9.6126 9.36405 0 0 1 19.5 114 L16.48 116.12 a0.462992 0.451021
								 -180 0 0 0.154331 0.800792 L24.93 119.02 a0.384252 0.374316 -180 0 0 0.116535 0.0153408 a0.462992
								 0.451021 -180 0 0 0.472441 -0.463293 Z" class="st4"/>
				</g>
			</g>
		</g>
	</g>
</svg>
